; generated by PrusaSlicer 2.7.1+MacOS-arm64 on 2024-01-16 at 21:04:10 UTC

; Most settings copied from Creality Manuform NICE

; external perimeters extrusion width = 0.45mm
; perimeters extrusion width = 0.45mm
; infill extrusion width = 0.45mm
; solid infill extrusion width = 0.45mm
; top infill extrusion width = 0.40mm
; support material extrusion width = 0.35mm
; first layer extrusion width = 0.42mm

M73 P0 R9
M73 Q0 S9
M201 X1000 Y1000 Z200 E5000 ; sets maximum accelerations, mm/sec^2
M203 X200 Y200 Z12 E120 ; sets maximum feedrates, mm / sec
M204 S1250 T1250 ; sets acceleration (S) and retract acceleration (R), mm/sec^2
M205 X8.00 Y8.00 Z0.40 E4.50 ; sets the jerk limits, mm/sec
M205 S0 T0 ; sets the minimum extruding and travel feed rate, mm/sec
;TYPE:Custom
M862.3 P "MK3S" ; printer model check
M862.1 P0.4 ; nozzle diameter check
M115 U3.10.0 ; tell printer latest fw version
G90 ; use absolute coordinates
M83 ; extruder relative mode
M104 S215 ; set extruder temp
M140 S60 ; set bed temp
M190 S60 ; wait for bed temp
M109 S215 ; wait for extruder temp
G28 W ; home all without mesh bed level
G80 ; mesh bed leveling
G1 Y-3.0 F1000.0 ; go outside print area
G92 E0.0
G1 X60.0 E9.0 F1000.0 ; intro line
G1 X100.0 E12.5 F1000.0 ; intro line
G92 E0.0
M221 S95

; Don't change E values below. Excessive value can damage the printer.

G21 ; set units to millimeters
G90 ; use absolute coordinates
M83 ; use relative distances for extrusion
M900 K0.05 ; Filament gcode LA 1.5
M900 K30 ; Filament gcode LA 1.0
M107
;LAYER_CHANGE
;Z:0.2
;HEIGHT:0.2
;BEFORE_LAYER_CHANGE
G92 E0.0
;0.2


G1 Z.2 F10800
M73 P1 R9
M73 Q1 S9
;AFTER_LAYER_CHANGE
;0.2
G1 E-.6 F2100
G1 X127.261 Y91.914 F10800
G1 Z.2
G1 E.6 F2100
;TYPE:Perimeter
;WIDTH:0.419999
G1 F1200
G1 X135.336 Y91.914 E.24053
G1 X135.336 Y94.793 E.08576
G1 X135.336 Y118.086 E.69382
G1 X127.26 Y118.086 E.24056
G1 X127.39 Y117.567 E.01594
G1 X127.402 Y117.042 E.01564
G1 X127.307 Y116.547 E.01501
G1 X127.14 Y116.139 E.01313
G1 X126.864 Y115.719 E.01497
G1 X126.551 Y115.405 E.01321
G1 X126.058 Y115.09 E.01743
G1 X125.578 Y114.915 E.01522
G1 X125 Y114.839 E.01736
G1 X124.559 Y114.879 E.01319
G1 X124.075 Y115.024 E.01505
G1 X123.615 Y115.276 E.01562
G1 X123.278 Y115.561 E.01315
G1 X122.927 Y116.014 E.01707
G1 X122.701 Y116.523 E.01659
G1 X122.599 Y117.099 E.01742
G1 X122.622 Y117.61 E.01524
G1 X122.743 Y118.086 E.01463
G1 X114.664 Y118.086 E.24065
G1 X114.664 Y91.914 E.77957
G1 X122.739 Y91.914 E.24053
M73 P2 R9
M73 Q2 S9
G1 X122.671 Y92.125 E.0066
G1 X122.592 Y92.641 E.01555
G1 X122.625 Y93.165 E.01564
G1 X122.762 Y93.651 E.01504
G1 X122.966 Y94.044 E.01319
G1 X123.293 Y94.452 E.01557
G1 X123.764 Y94.813 E.01768
G1 X124.25 Y95.035 E.01592
G1 X124.642 Y95.121 E.01195
G1 X125.358 Y95.121 E.02133
G1 X125.75 Y95.035 E.01195
G1 X126.238 Y94.812 E.01598
G1 X126.511 Y94.621 E.00992
G1 X126.873 Y94.26 E.01523
G1 X127.06 Y93.992 E.00973
G1 X127.276 Y93.529 E.01522
G1 X127.353 Y93.274 E.00793
G1 X127.405 Y92.691 E.01743
G1 X127.338 Y92.185 E.0152
G1 X127.277 Y91.972 E.0066
G1 X126.852 Y91.473 F10800
;WIDTH:0.542243
G1 F1200
G1 X126.916 Y91.487 E.00258
;WIDTH:0.501495
G1 X127.028 Y91.512 E.00416
;WIDTH:0.460747
G1 X127.14 Y91.537 E.00379
;WIDTH:0.419999
G1 X135.713 Y91.537 E.25536
G1 X135.713 Y94.793 E.09698
G1 X135.713 Y118.463 E.70505
G1 X127.618 Y118.463 E.24112
;WIDTH:0.45462
G1 X127.386 Y118.459 E.00755
;WIDTH:0.48924
G1 X127.153 Y118.455 E.00822
;WIDTH:0.52386
G1 X126.92 Y118.451 E.00885
;WIDTH:0.559212
G1 X126.859 Y118.466 E.00256
;WIDTH:0.594564
G1 X126.797 Y118.48 E.00277
;WIDTH:0.629916
G1 X126.735 Y118.494 E.00295
G1 X126.755 Y118.434 E.00293
;WIDTH:0.594564
G1 X126.775 Y118.374 E.00276
;WIDTH:0.559212
G1 X126.795 Y118.314 E.00258
;WIDTH:0.52386
G1 X126.862 Y118.093 E.00877
;WIDTH:0.48924
G1 X126.929 Y117.872 E.00814
;WIDTH:0.45462
G1 X126.996 Y117.652 E.00748
;WIDTH:0.419999
G1 X127.035 Y117.223 E.01283
G1 X126.981 Y116.783 E.0132
G1 X126.865 Y116.434 E.01095
G1 X126.652 Y116.063 E.01274
G1 X126.328 Y115.709 E.01429
G1 X125.929 Y115.444 E.01427
G1 X125.449 Y115.269 E.01522
G1 X124.975 Y115.215 E.01421
G1 X124.608 Y115.252 E.01099
G1 X124.196 Y115.381 E.01286
G1 X123.811 Y115.599 E.01318
G1 X123.533 Y115.839 E.01094
G1 X123.271 Y116.178 E.01276
G1 X123.068 Y116.612 E.01427
G1 X122.976 Y117.082 E.01427
G1 X122.998 Y117.593 E.01524
G1 X123.136 Y118.068 E.01473
;WIDTH:0.466301
G1 X123.181 Y118.189 E.00432
;WIDTH:0.512603
G1 X123.226 Y118.311 E.00482
;WIDTH:0.558905
G1 X123.271 Y118.432 E.00526
;WIDTH:0.605206
G1 X123.316 Y118.554 E.00578
G1 X123.242 Y118.517 E.00367
;WIDTH:0.566815
G1 X123.115 Y118.499 E.00531
;WIDTH:0.517877
G1 X122.987 Y118.481 E.00485
;WIDTH:0.468938
G1 X122.86 Y118.463 E.00432
;WIDTH:0.419999
G1 X114.287 Y118.463 E.25536
G1 X114.287 Y91.537 E.80203
G1 X122.929 Y91.533 E.25742
M73 P3 R9
M73 Q3 S9
;WIDTH:0.46431
G1 X123.035 Y91.501 E.00369
;WIDTH:0.50862
G1 X123.141 Y91.47 E.00406
;WIDTH:0.55293
G1 X123.247 Y91.438 E.00446
;WIDTH:0.59724
G1 X123.353 Y91.407 E.00484
G1 X123.327 Y91.47 E.00298
;WIDTH:0.567378
G1 X123.243 Y91.677 E.00925
;WIDTH:0.518252
G1 X123.158 Y91.885 E.00844
;WIDTH:0.469126
G1 X123.073 Y92.092 E.00753
;WIDTH:0.419999
G1 X122.979 Y92.511 E.01279
G1 X122.975 Y92.953 E.01317
G1 X123.067 Y93.386 E.01319
M73 P3 R8
G1 X123.213 Y93.726 E.01102
G1 X123.542 Y94.169 E.01644
G1 X123.921 Y94.47 E.01442
G1 X124.407 Y94.693 E.01593
G1 X124.642 Y94.744 E.00716
G1 X125.358 Y94.744 E.02133
G1 X125.593 Y94.693 E.00716
G1 X126.08 Y94.469 E.01597
G1 X126.245 Y94.355 E.00597
G1 X126.718 Y93.833 E.02098
G1 X126.964 Y93.29 E.01776
G1 X127.031 Y92.741 E.01647
G1 X126.964 Y92.234 E.01523
G1 X126.866 Y91.947 E.00903
;WIDTH:0.465197
G1 X126.814 Y91.815 E.00473
;WIDTH:0.510394
G1 X126.762 Y91.682 E.00527
;WIDTH:0.555591
G1 X126.709 Y91.55 E.00576
;WIDTH:0.600788
G1 X126.657 Y91.417 E.00629
G1 X126.692 Y91.438 E.0018
;WIDTH:0.582991
G1 X126.793 Y91.46 E.00441
G1 X126.973 Y91.073 F10800
;TYPE:External perimeter
;WIDTH:0.419999
G1 F1200
G1 X126.981 Y91.08 E.00032
G1 X127.14 Y91.16 E.0053
G1 X136.09 Y91.16 E.26659
G1 X136.09 Y94.793 E.10821
G1 X136.09 Y118.84 E.71628
G1 X127.176 Y118.84 E.26552
G1 X127.012 Y118.89 E.00511
G1 X126.514 Y119.349 E.02017
G1 X126.031 Y119.625 E.01657
G1 X125.5 Y119.79 E.01656
G1 X124.944 Y119.838 E.01662
M73 Q3 S8
G1 X124.392 Y119.766 E.01658
G1 X123.867 Y119.578 E.01661
G1 X123.394 Y119.281 E.01664
G1 X123.025 Y118.926 E.01525
G1 X122.86 Y118.84 E.00554
G1 X113.91 Y118.84 E.26659
G1 X113.91 Y91.16 E.82449
G1 X122.86 Y91.16 E.26659
M73 Q4 S8
G1 X122.988 Y91.11 E.00409
M73 P4 R8
G1 X123.486 Y90.65 E.02019
G1 X123.969 Y90.375 E.01656
G1 X124.498 Y90.21 E.01651
G1 X125.17 Y90.167 E.02006
G1 X125.673 Y90.255 E.01521
G1 X126.131 Y90.421 E.01451
G1 X126.606 Y90.719 E.0167
G1 X126.93 Y91.031 E.0134
G1 X127.313 Y91.148 F10800
G1 E-.6 F2100
G1 Z.3 F10800
G1 X123.402 Y92.386
G1 Z.2
G1 E.6 F2100
G1 F1200
G1 X123.482 Y92.091 E.0091
G1 X123.743 Y91.667 E.01483
G1 X124.007 Y91.421 E.01075
G1 X124.318 Y91.237 E.01076
G1 X124.673 Y91.125 E.01109
G1 X125.185 Y91.103 E.01526
G1 X125.583 Y91.196 E.01217
G1 X125.857 Y91.331 E.0091
G1 X126.249 Y91.66 E.01524
G1 X126.518 Y92.092 E.01516
G1 X126.59 Y92.283 E.00608
G1 X126.657 Y92.79 E.01523
G1 X126.592 Y93.21 E.01266
G1 X126.377 Y93.673 E.01521
G1 X125.923 Y94.126 E.0191
G1 X125.436 Y94.35 E.01597
G1 X124.642 Y94.367 E.02366
G1 X124.078 Y94.127 E.01826
G1 X123.762 Y93.855 E.01242
G1 X123.555 Y93.566 E.01059
G1 X123.434 Y93.297 E.00879
G1 X123.352 Y92.945 E.01077
G1 X123.349 Y92.584 E.01075
G1 X123.387 Y92.444 E.00432
G1 X123.513 Y92.065 F10800
G1 X123.353 Y91.407
;TYPE:Perimeter
;WIDTH:0.59724
G1 F1200
G1 X123.761 Y91.027 E.02441
;WIDTH:0.593606
G1 X124.169 Y90.799 E.02033
;WIDTH:0.59286
G1 X124.653 Y90.663 E.02184
;WIDTH:0.595922
G1 X125.164 Y90.638 E.02235
G1 X125.658 Y90.735 E.02199
;WIDTH:0.590658
G1 X126.08 Y90.929 E.0201
;WIDTH:0.592408
G1 X126.547 Y91.305 E.02602
;WIDTH:0.600788
G1 X126.657 Y91.417 E.00692
G1 E-.6 F2100
G1 X126.657 Y91.417 Z.3 F10800
G1 X120.654 Y96.047
G1 Z.2
G1 E.6 F2100
;WIDTH:0.419999
G1 F1200
G1 X121.243 Y96.036 E.01755
G1 X129.321 Y96.036 E.24062
G1 X129.563 Y96.067 E.00727
G1 X129.782 Y96.156 E.00704
G1 X130.095 Y96.439 E.01257
G1 X130.244 Y96.783 E.01117
G1 X130.264 Y96.979 E.00587
G1 X130.264 Y111.021 E.41826
G1 X130.233 Y111.261 E.00721
G1 X130.146 Y111.478 E.00696
G1 X129.866 Y111.791 E.01251
G1 X129.485 Y111.95 E.0123
G1 X126.098 Y111.964 E.10089
G1 X120.679 Y111.964 E.16141
G1 X120.312 Y111.89 E.01115
G1 X119.982 Y111.657 E.01203
G1 X119.854 Y111.478 E.00655
G1 X119.75 Y111.184 E.00929
G1 X119.736 Y111.021 E.00487
G1 X119.736 Y96.979 E.41826
G1 X119.815 Y96.6 E.01153
G1 X120.039 Y96.286 E.01149
G1 X120.218 Y96.156 E.00659
G1 X120.516 Y96.05 E.00942
G1 X120.594 Y96.048 E.00232
G1 X120.677 Y96.428 F10800
G1 F1200
G1 X121.243 Y96.413 E.01687
G1 X129.321 Y96.413 E.24062
G1 X129.598 Y96.485 E.00853
G1 X129.785 Y96.655 E.00753
G1 X129.875 Y96.861 E.0067
G1 X129.887 Y111.021 E.42178
G1 X129.816 Y111.296 E.00846
M73 P5 R8
M73 Q5 S8
G1 X129.648 Y111.483 E.00749
G1 X129.385 Y111.583 E.00838
G1 X126.098 Y111.587 E.09791
G1 X120.679 Y111.587 E.16141
G1 X120.458 Y111.543 E.00671
G1 X120.261 Y111.403 E.0072
G1 X120.132 Y111.165 E.00806
G1 X120.113 Y111.021 E.00433
G1 X120.113 Y96.979 E.41826
G1 X120.16 Y96.752 E.0069
G1 X120.295 Y96.563 E.00692
G1 X120.533 Y96.432 E.00809
G1 X120.617 Y96.43 E.0025
G1 X120.701 Y96.79 F10800
;TYPE:External perimeter
G1 F1200
G1 X129.321 Y96.79 E.25676
G1 X129.449 Y96.84 E.00409
G1 X129.51 Y96.979 E.00452
G1 X129.51 Y111.021 E.41826
G1 X129.461 Y111.149 E.00408
G1 X129.321 Y111.21 E.00455
G1 X126.098 Y111.21 E.096
G1 X120.679 Y111.21 E.16141
G1 X120.539 Y111.149 E.00455
G1 X120.49 Y111.021 E.00408
G1 X120.49 Y96.979 E.41826
G1 X120.551 Y96.84 E.00452
G1 X120.645 Y96.809 E.00295
G1 X121.044 Y96.792 F10800
G1 E-.6 F2100
G1 Z.3 F10800
G1 X126.643 Y117.407
G1 Z.2
G1 E.6 F2100
G1 F1200
G1 X126.631 Y117.554 E.00439
G1 X126.536 Y117.869 E.0098
G1 X126.336 Y118.216 E.01193
G1 X125.992 Y118.58 E.01492
G1 X125.687 Y118.761 E.01056
G1 X125.338 Y118.869 E.01088
G1 X124.985 Y118.904 E.01057
G1 X124.662 Y118.87 E.00967
G1 X124.191 Y118.698 E.01494
G1 X123.894 Y118.487 E.01085
G1 X123.671 Y118.243 E.00985
G1 X123.488 Y117.933 E.01072
G1 X123.375 Y117.577 E.01113
G1 X123.353 Y117.066 E.01524
G1 X123.467 Y116.622 E.01365
G1 X123.575 Y116.401 E.00733
G1 X123.788 Y116.117 E.01057
G1 X124.007 Y115.921 E.00875
G1 X124.317 Y115.738 E.01072
G1 X124.657 Y115.626 E.01066
G1 X124.95 Y115.592 E.00879
G1 X125.32 Y115.624 E.01106
G1 X125.801 Y115.799 E.01525
G1 X126.133 Y116.038 E.01219
G1 X126.407 Y116.385 E.01317
G1 X126.599 Y116.805 E.01376
G1 X126.658 Y117.198 E.01184
G1 X126.647 Y117.347 E.00445
G1 X126.569 Y117.739 F10800
G1 X126.735 Y118.494
;TYPE:Perimeter
;WIDTH:0.629916
G1 F1200
G1 X126.371 Y118.857 E.02384
;WIDTH:0.584306
G1 X125.943 Y119.147 E.02211
;WIDTH:0.598684
G1 X125.409 Y119.33 E.02478
G1 X124.954 Y119.369 E.02005
;WIDTH:0.600966
G1 X124.502 Y119.309 E.0201
G1 X124.017 Y119.126 E.02285
;WIDTH:0.590246
G1 X123.557 Y118.802 E.02433
;WIDTH:0.605206
G1 X123.316 Y118.554 E.01536
G1 E-.6 F2100
G1 X123.316 Y118.554 Z.3 F10800
G1 X134.459 Y92.027
G1 Z.2
M73 Q6 S8
G1 E.6 F2100
;TYPE:Solid infill
;WIDTH:0.420582
G1 F1200
G1 X135.053 Y92.621 E.02506
G1 X135.053 Y93.155 E.01593
G1 X134.095 Y92.197 E.04042
G1 X133.561 Y92.197 E.01593
M73 P6 R8
G1 X135.053 Y93.689 E.06295
G1 X135.053 Y94.223 E.01593
G1 X133.027 Y92.197 E.08548
G1 X132.493 Y92.197 E.01593
G1 X135.053 Y94.757 E.10801
G1 X135.053 Y95.292 E.01596
G1 X131.958 Y92.197 E.13058
G1 X131.424 Y92.197 E.01593
G1 X135.053 Y95.826 E.15311
G1 X135.053 Y96.36 E.01593
G1 X130.89 Y92.197 E.17564
G1 X130.356 Y92.197 E.01593
G1 X135.053 Y96.894 E.19816
G1 X135.053 Y97.428 E.01593
G1 X129.822 Y92.197 E.22069
G1 X129.288 Y92.197 E.01593
G1 X135.053 Y97.962 E.24322
G1 X135.053 Y98.496 E.01593
G1 X128.754 Y92.197 E.26575
G1 X128.22 Y92.197 E.01593
G1 X135.053 Y99.03 E.28828
G1 X135.053 Y99.564 E.01593
G1 X127.686 Y92.197 E.31081
G1 X127.619 Y92.197 E.002
G1 X127.685 Y92.731 E.01605
G1 X135.053 Y100.098 E.31083
G1 X135.053 Y100.633 E.01596
G1 X127.647 Y93.226 E.31248
G1 X127.533 Y93.647 E.01301
M73 Q7 S8
G1 X135.053 Y101.167 E.31727
G1 X135.053 Y101.701 E.01593
M73 P7 R8
G1 X130.547 Y97.195 E.19011
G1 X130.547 Y97.729 E.01593
G1 X135.053 Y102.235 E.19011
G1 X135.053 Y102.769 E.01593
G1 X130.547 Y98.263 E.19011
G1 X130.547 Y98.797 E.01593
G1 X135.053 Y103.303 E.19011
G1 X135.053 Y103.837 E.01593
G1 X130.547 Y99.331 E.19011
G1 X130.547 Y99.865 E.01593
G1 X135.053 Y104.371 E.19011
G1 X135.053 Y104.905 E.01593
G1 X130.547 Y100.399 E.19011
G1 X130.547 Y100.933 E.01593
G1 X135.053 Y105.439 E.19011
G1 X135.053 Y105.973 E.01593
G1 X130.547 Y101.467 E.19011
G1 X130.547 Y102.001 E.01593
G1 X135.053 Y106.508 E.19013
G1 X135.053 Y107.042 E.01593
G1 X130.547 Y102.536 E.19011
G1 X130.547 Y103.07 E.01593
G1 X135.053 Y107.576 E.19011
G1 X135.053 Y108.11 E.01593
G1 X130.547 Y103.604 E.19011
G1 X130.547 Y104.138 E.01593
G1 X135.053 Y108.644 E.19011
G1 X135.053 Y109.178 E.01593
G1 X130.547 Y104.672 E.19011
G1 X130.547 Y105.206 E.01593
M73 P8 R8
M73 Q8 S8
G1 X135.053 Y109.712 E.19011
G1 X135.053 Y110.246 E.01593
G1 X130.547 Y105.74 E.19011
G1 X130.547 Y106.274 E.01593
G1 X135.053 Y110.78 E.19011
G1 X135.053 Y111.314 E.01593
G1 X130.547 Y106.808 E.19011
G1 X130.547 Y107.342 E.01593
G1 X135.053 Y111.849 E.19013
G1 X135.053 Y112.383 E.01593
G1 X130.547 Y107.877 E.19011
G1 X130.547 Y108.411 E.01593
G1 X135.053 Y112.917 E.19011
G1 X135.053 Y113.451 E.01593
G1 X130.547 Y108.945 E.19011
G1 X130.547 Y109.479 E.01593
G1 X135.053 Y113.985 E.19011
G1 X135.053 Y114.519 E.01593
G1 X130.547 Y110.013 E.19011
G1 X130.547 Y110.547 E.01593
G1 X135.053 Y115.053 E.19011
G1 X135.053 Y115.587 E.01593
G1 X130.541 Y111.075 E.19036
G1 X130.507 Y111.333 E.00776
G1 X130.438 Y111.506 E.00556
G1 X135.053 Y116.121 E.19471
G1 X135.053 Y116.655 E.01593
G1 X130.235 Y111.837 E.20327
G1 X130.03 Y112.022 E.00824
G1 X129.937 Y112.074 E.00318
G1 X135.053 Y117.189 E.21582
G1 X135.053 Y117.724 E.01596
M73 Q9 S8
G1 X129.553 Y112.223 E.23206
G1 X129.379 Y112.246 E.00524
M73 P9 R8
G1 X129.041 Y112.246 E.01008
G1 X134.598 Y117.803 E.23445
G1 X134.064 Y117.803 E.01593
G1 X128.507 Y112.246 E.23445
G1 X127.973 Y112.246 E.01593
G1 X133.53 Y117.803 E.23445
G1 X132.996 Y117.803 E.01593
G1 X127.439 Y112.246 E.23445
G1 X126.905 Y112.246 E.01593
G1 X132.462 Y117.803 E.23445
G1 X131.928 Y117.803 E.01593
G1 X126.371 Y112.246 E.23445
G1 X125.837 Y112.246 E.01593
G1 X131.394 Y117.803 E.23445
G1 X130.86 Y117.803 E.01593
G1 X125.303 Y112.246 E.23445
G1 X124.769 Y112.246 E.01593
G1 X130.326 Y117.803 E.23445
G1 X129.792 Y117.803 E.01593
G1 X124.235 Y112.246 E.23445
G1 X123.701 Y112.247 E.01593
G1 X129.257 Y117.803 E.23441
G1 X128.723 Y117.803 E.01593
G1 X127.638 Y116.718 E.04578
G1 X127.682 Y117.004 E.00863
G1 X127.691 Y117.304 E.00895
G1 X128.189 Y117.803 E.02103
G1 X127.655 Y117.803 E.01593
G1 X127.49 Y117.638 E.00696
G1 E-.6 F2100
G1 X127.49 Y117.638 Z.3 F10800
G1 X125.793 Y114.873
G1 Z.2
M73 Q10 S8
G1 E.6 F2100
G1 F1200
G1 X123.167 Y112.247 E.11079
G1 X122.633 Y112.247 E.01593
M73 P10 R8
G1 X124.94 Y114.554 E.09733
G1 X124.464 Y114.611 E.0143
G1 X122.099 Y112.247 E.09976
G1 X121.565 Y112.247 E.01593
G1 X124.051 Y114.733 E.10488
G1 X123.686 Y114.902 E.012
G1 X120.861 Y112.077 E.11919
G1 E-.6 F2100
G1 X120.861 Y112.077 Z.3 F10800
G1 X129.275 Y95.923
G1 Z.2
G1 E.6 F2100
G1 F1200
G1 X127.363 Y94.011 E.08067
G1 X127.313 Y94.119 E.00355
G1 X127.158 Y94.34 E.00805
G1 X128.571 Y95.753 E.05961
G1 X128.037 Y95.753 E.01593
G1 X126.908 Y94.624 E.04763
G1 X126.63 Y94.88 E.01127
G1 X127.503 Y95.753 E.03683
G1 X126.969 Y95.753 E.01593
G1 X126.307 Y95.091 E.02793
G1 X125.941 Y95.259 E.01201
G1 X126.435 Y95.753 E.02084
G1 X125.901 Y95.753 E.01593
G1 X125.536 Y95.389 E.01538
G1 X125.018 Y95.404 E.01546
G1 X125.367 Y95.753 E.01472
G1 X124.833 Y95.753 E.01593
G1 X124.22 Y95.14 E.02586
G1 E-.6 F2100
G1 X124.22 Y95.14 Z.3 F10800
